X: 1
T: Fischer's Hornpipe  v.1
T: Fisher's Hornpipe, Blacksmith's Hornpipe
P: piffero primo a0085
O: attr. Johann Fischer (1733-1800)
%R: hornpipe, reel
F: http://ancients.sudburymuster.org/mus/col/pdf/contraF.pdf
Z: 2019 John Chambers <jc:trillian.mit.edu>
M: 2/4
L: 1/16
K: D
(3(ABc |\
d)A FA GBAG| FAFA GBAG | FDFD GEGE | FDFD E2 (3(ABc | d)A FA GBAG |
FAFA GBAG | FGAB cAcA | d2d2 d2 :: cd | ecAc ecge | fdAd fdgf |
ecAc ecgf | edcB A2 GA | BGDG BGdB | AFDF AFdA | BdcB AGFE | D2 d2 d2 :|


